X: 6
T:Denis Murphy's Slide No. 1
M:12/8
L:1/8
R:Slide
K:D
B[|A2D FED F2A A2f|gfe fed e2d BdB|!
A2D FED F2A A2f|a2f efe d3 d2B||!
A2D FED F2A A2f|gfe fed e2d BdB|!
A2D FED F2A A2f|a2f efe d3 d2A|]!
d2e f2f gfe f2f|gfe fed e2d BAB|!
d2e f2f gfe f2g|a2f efe d3 d2A||!
d2e f2f gfe f2f|gfe fed e2d BAB|!
d2e f2f gfe f2g|a2f efe d3 d2B|]!
